logos/lookback.svg

<?xml version="1.0" encoding="UTF-8"?>
<svg width="512px" height="96px" viewBox="0 0 512 96" version="1.1" xmlns="http://www.w3.org/2000/svg" preserveAspectRatio="xMidYMid">
    <title>Lookback</title>
    <g>
        <path d="M296.12754,31.5450935 C288.193381,31.5450935 282.940777,34.8786187 275.905381,40.4701007 L275.905381,1.00558273 L273.982619,0 L249.66446,11.499741 L249.66446,13.2604317 L259.072,19.0434532 L259.072,90.8707914 C267.713381,94.638964 275.456,95.6445468 283.390158,95.6445468 C301.118619,95.6445468 318.592921,83.577554 318.592921,60.9574676 C318.526619,44.0504173 308.993842,31.5450935 296.12754,31.5450935 Z M287.169381,86.9073957 C282.43246,86.9073957 278.844777,84.7709928 275.839079,81.1243741 L275.839079,45.1812374 C279.258018,44.3639686 282.755855,43.9217986 286.270619,43.8625612 C294.912,43.8625612 300.606619,50.8979568 300.606619,65.1676547 C300.672921,78.9916547 296.25646,86.9073957 287.169381,86.9073957 L287.169381,86.9073957 Z M372.607079,84.203741 L372.607079,56.1174101 C372.607079,40.1570072 366.463079,31.4824748 351.04046,31.4824748 C341.058302,31.4824748 332.862619,35.0664748 325.698302,42.1018705 L328.446158,47.5717986 C333.695079,44.2419568 338.686158,42.2307914 343.806158,42.2307914 C352.318619,42.2307914 355.64846,47.2550216 355.64846,57.0603741 L355.64846,59.6387914 C330.306302,62.2135252 322.943079,70.5712806 322.943079,81.3785324 C322.943079,91.9979281 330.43154,95.6445468 337.470619,95.6445468 C343.489381,95.6445468 349.633381,93.0661295 355.64846,89.0437986 L355.64846,94.0717122 L379.841381,94.0717122 L379.841381,84.8999137 L373.248,84.8999137 L372.607079,84.2074245 L372.607079,84.203741 Z M355.773698,84.0195683 C353.195281,84.7709928 350.52846,85.2166906 347.83954,85.3382446 C342.84846,85.3382446 339.330763,82.8887482 339.518619,77.4188201 C339.64754,70.9469928 344.380777,67.8050072 355.777381,66.7994245 L355.777381,84.0195683 L355.773698,84.0195683 Z M420.606158,85.6513381 C410.495079,85.6513381 400.958619,77.6103597 400.958619,59.5724892 C400.958619,46.7540719 404.929381,39.8402302 412.417842,39.8402302 C415.489842,39.8402302 417.854619,40.9710504 420.480921,43.1700719 L431.616,57.8117986 L433.535079,57.8117986 L433.535079,34.6907626 C428.038972,32.6745249 422.238844,31.6119155 416.384921,31.548777 C395.838619,31.548777 383.104921,46.1905036 383.104921,65.0424173 C383.104921,83.4596835 394.814619,95.5229928 413.121381,95.5229928 C421.566347,95.6523391 429.764959,92.6769837 436.161381,87.161554 L433.406158,82.1373237 C428.993381,84.6494388 425.28046,85.6550216 420.606158,85.6550216 L420.606158,85.6513381 Z M502.912921,84.8999137 L483.13646,57.5613237 L509.056921,34.1235108 L509.056921,32.9926906 L476.672,32.9926906 L476.672,34.2450647 L485.05554,42.2934101 L466.303079,61.9004317 L488.831079,94.1343309 L512,94.1343309 L512,84.9035971 L502.912921,84.9035971 L502.912921,84.8999137 Z" fill="#192D41"></path>
        <path d="M465.08754,84.203741 L465.08754,1.00926619 L463.03954,0 L438.846619,11.499741 L438.846619,13.1941295 L448.257842,18.9771511 L448.257842,84.2074245 L447.488,84.8999137 L440.894619,84.8999137 L440.894619,94.1343309 L472.447079,94.1343309 L472.447079,84.9035971 L465.857381,84.9035971 L465.08754,84.2111079 L465.08754,84.203741 Z M15.0395396,9.48857554 L0,9.48857554 L0,94.2632518 L50.8795396,94.2632518 L50.8795396,80.6234245 L15.0395396,80.6234245 L15.0395396,9.48857554 Z M83.456,31.6703309 C64.8950791,31.6703309 50.8795396,45.4353957 50.8795396,63.6574388 C50.8795396,81.8831655 64.8950791,95.7697842 83.456,95.7697842 C102.016921,95.7697842 116.161381,81.9457842 116.161381,63.6574388 C116.161381,45.372777 102.142158,31.6703309 83.456,31.6703309 L83.456,31.6703309 Z M83.456,82.4467338 C73.0870791,82.4467338 65.2818417,74.4057554 65.2818417,63.7200576 C65.2818417,53.0380432 73.0907626,45.056 83.456,45.056 C93.696,45.056 101.762763,53.2258993 101.762763,63.6574388 C101.762763,74.3394532 93.9538417,82.4467338 83.456,82.4467338 Z M153.6,31.6077122 C135.039079,31.6077122 121.02354,45.372777 121.02354,63.5948201 C121.02354,81.8205468 135.039079,95.7071655 153.6,95.7071655 C172.160921,95.7071655 186.305381,81.8831655 186.305381,63.5948201 C186.305381,45.3064748 172.22354,31.6077122 153.6,31.6077122 Z M153.6,82.3214964 C143.231079,82.3214964 135.425842,74.2768345 135.425842,63.5948201 C135.425842,52.9128058 143.234763,44.9933813 153.6,44.9933813 C163.84,44.9933813 171.906763,53.1632806 171.906763,63.5948201 C171.906763,74.2768345 164.03154,82.3214964 153.6,82.3214964 Z M246.655079,33.0553094 L227.073842,33.0553094 L208.446619,52.0324604 L208.446619,6.40920863 L194.048,6.40920863 L194.048,94.1343309 L208.450302,94.1343309 L208.450302,67.1751367 L233.66354,94.1380144 L252.544921,94.1380144 L220.288921,59.5724892 L246.655079,33.0516259 L246.655079,33.0553094 Z" fill="#192D41"></path>
    </g>
</svg>

<svg preserveAspectRatio="xMidYMid" viewBox="0 0 512 96" xmlns="http://www.w3.org/2000/svg">
  <g fill="#192D41">
    <path d="M296.128 31.545c-7.935 0-13.187 3.334-20.223 8.925V1.006L273.983 0l-24.319 11.5v1.76l9.408 5.783v71.828c8.641 3.768 16.384 4.774 24.318 4.774 17.729 0 35.203-12.067 35.203-34.688-.066-16.907-9.6-29.412-22.465-29.412Zm-8.959 55.362c-4.737 0-8.324-2.136-11.33-5.783V45.181a48.375 48.375 0 0 1 10.432-1.318c8.641 0 14.336 7.035 14.336 21.305.066 13.824-4.35 21.74-13.438 21.74Zm85.438-2.703V56.117c0-15.96-6.144-24.635-21.567-24.635-9.982 0-18.177 3.584-25.342 10.62l2.748 5.47c5.25-3.33 10.24-5.341 15.36-5.341 8.513 0 11.842 5.024 11.842 14.83v2.578c-25.342 2.575-32.705 10.932-32.705 21.74 0 10.619 7.489 14.266 14.528 14.266 6.018 0 12.162-2.579 18.177-6.601v5.028h24.193V84.9h-6.593l-.64-.693v-.003Zm-16.833-.184a33.84 33.84 0 0 1-7.934 1.318c-4.992 0-8.51-2.45-8.321-7.92.129-6.471 4.862-9.613 16.258-10.619v17.22h-.003Zm64.832 1.631c-10.11 0-19.647-8.04-19.647-26.079 0-12.818 3.97-19.732 11.459-19.732 3.072 0 5.437 1.131 8.063 3.33l11.135 14.642h1.92V34.69a51.406 51.406 0 0 0-17.151-3.142c-20.546 0-33.28 14.642-33.28 33.493 0 18.418 11.71 30.481 30.016 30.481a34.473 34.473 0 0 0 23.04-8.361l-2.755-5.025c-4.413 2.512-8.126 3.518-12.8 3.518v-.004Zm82.307-.751-19.777-27.34 25.92-23.437v-1.131h-32.384v1.252l8.384 8.048L466.303 61.9l22.528 32.234H512v-9.23h-9.087V84.9Z"/>
    <path d="M465.088 84.204V1.009L463.04 0l-24.193 11.5v1.694l9.41 5.783v65.23l-.769.693h-6.593v9.234h31.552v-9.23h-6.59l-.77-.693v-.007ZM15.04 9.489H0v84.774h50.88v-13.64H15.04V9.49ZM83.456 31.67c-18.56 0-32.576 13.765-32.576 31.987 0 18.226 14.015 32.113 32.576 32.113 18.56 0 32.705-13.824 32.705-32.113 0-18.284-14.019-31.987-32.705-31.987Zm0 50.777c-10.369 0-18.174-8.041-18.174-18.727 0-10.682 7.809-18.664 18.174-18.664 10.24 0 18.307 8.17 18.307 18.601 0 10.682-7.81 18.79-18.307 18.79Zm70.144-50.84c-18.56 0-32.576 13.766-32.576 31.988 0 18.226 14.015 32.112 32.576 32.112 18.56 0 32.705-13.824 32.705-32.112 0-18.289-14.081-31.987-32.705-31.987Zm0 50.714c-10.369 0-18.174-8.044-18.174-18.726 0-10.682 7.809-18.602 18.174-18.602 10.24 0 18.307 8.17 18.307 18.602 0 10.682-7.875 18.726-18.307 18.726Zm93.055-49.266h-19.581l-18.627 18.977V6.41h-14.399v87.725h14.402v-26.96l25.214 26.963h18.88L220.29 59.572l26.366-26.52v.003Z"/>
  </g>
</svg>
